vivaldi-source/chromium/ui/webui/resources/images/eol.svg

<svg width="20px" height="20px" viewBox="0 0 20 20" version="1.1" xmlns="http://www.w3.org/2000/svg" xmlns:xlink="http://www.w3.org/1999/xlink">
    <g id="Notification-Icon" stroke="none" stroke-width="1" fill="none" fill-rule="evenodd">
        <g id="Artboard-4-Copy-3" fill="#DB4437">
            <path d="M4.57403661,2.91638517 L4.55031697,2.91638517 L4.56057411,2.92664728 C4.56506161,2.92344037 4.56954911,2.91959208 4.57403661,2.91638517 Z M2.50042738,4.96765297 L2.50042738,4.99074272 C2.50363274,4.98625305 2.50683809,4.98240475 2.51068452,4.97791508 L2.50042738,4.96765297 Z M17.0847995,15.4572626 L17.0847995,15.4335314 C17.0815941,15.4380211 17.0777477,15.4425108 17.0745423,15.4470005 L17.0847995,15.4572626 Z M17.3075718,17.2753239 L16.3754541,16.3241544 L12.2687513,12.2154616 L8.02614146,7.98939582 L3.67454947,3.63505366 L2.73281573,2.69350494 L2.02058551,1.98092958 L1,3.00200966 L2.73281573,4.73502373 C1.67761237,6.23072647 1.05000356,8.02980288 1.05000356,9.97960405 C1.05000356,11.9294052 1.67761237,13.7284816 2.73281573,15.2004532 C3.30657454,16.0008979 4.0066244,16.701287 4.80668139,17.2753239 C6.27794002,18.3310386 8.07614502,18.9589516 10.0250018,18.9589516 C11.9738585,18.9589516 13.7720635,18.3310386 15.2433222,17.2753239 L16.9908825,19 L18.0114681,17.9789199 L17.3075718,17.2753239 Z M15.2433222,2.68362766 C13.7720635,1.62855433 11.9738585,1 10.0250018,1 C8.07614502,1 6.27794002,1.62855433 4.80668139,2.68362766 C4.80155282,2.68747595 8.94159128,6.84491384 8.94159128,6.84491384 L10.0250018,5.0300293 L15.0415647,11 L13.1963815,11 L17.3069307,15.2143071 C18.3723912,13.7288665 19,11.9291487 19,9.9793475 C19,8.03018771 18.3723912,6.23046992 17.3171878,4.75849831 C16.743429,3.95805362 16.0433792,3.25766451 15.2433222,2.68362766 Z M12,15 L7.012146,15 L7.01214607,11.0111083 L4.5,11 L6.7267679,9.12400051 L12,14.6000004 L12,15 Z" id="Combined-Shape"></path>
        </g>
    </g>
</svg>

<svg width="20" height="20" xmlns="http://www.w3.org/2000/svg"><path d="M4.574 2.916H4.55l.01.01.014-.01zM2.5 4.968v.023a.18.18 0 0 1 .01-.013l-.01-.01zm14.585 10.49v-.024l-.01.013.01.01zm.223 1.817l-.933-.95-4.106-4.11L8.026 7.99 3.675 3.635l-.942-.941-.712-.713L1 3.002l1.733 1.733A9.056 9.056 0 0 0 1.05 9.98c0 1.95.628 3.748 1.683 5.22.574.8 1.274 1.501 2.074 2.075a8.918 8.918 0 0 0 5.218 1.684 8.918 8.918 0 0 0 5.218-1.684L16.991 19l1.02-1.021-.703-.704zM15.243 2.684A8.922 8.922 0 0 0 10.025 1a8.922 8.922 0 0 0-5.218 1.684c-.005.003 4.135 4.16 4.135 4.16l1.083-1.814L15.042 11h-1.846l4.11 4.214a8.939 8.939 0 0 0 .011-10.456 9.021 9.021 0 0 0-2.074-2.074zM12 15H7.012v-3.989L4.5 11l2.227-1.876L12 14.6v.4z" fill="#DB4437" fill-rule="evenodd"/></svg>
